!!!COM: Felix Mendelssohn
!!!CNT: Deutsch
!!!TXO: Deutsch
!!!OTL: Im Gru2nen
!!!LYR: Voss
!!!OPS: Op. 8
!!!ONM: No. 11
!!!ENC: Daniel Alt & Leigh VanHandel
!!!YOR: Sa2mmtliche Lieder fu2r eine Singstimme 
!!!YOR: Neu revidirt von Dr. L. Benda, Ausgabe fu2r mittlere Stimme
!!!YOR: Braunschweig. Henry Litolff's Verlag. Boston and New York: Arthur P. Schmidt.
!!!ODT: 1827/
!!NB: Date is publication date
**kern
*staff1
=1-
*clefG2
*k[]
*M6/8
2.r
=2
2.r
=3
2.r
=4
4r
8r
4r
{8g
=5
8.ee
16dd
8cc
8.cc
16b
8a
=6
8.g
16a
8g
8g}
8r
{8g
=7
8.ee
16dd
8cc
8.cc
16b
8a
=8
8.g
16a
8g
8g}
8r
{16e
16g-
=9
[4.g
8g]
8e
8g-
=10
[4.g
8g]
8e
8g-
=11
8g
8e
8g-
8gn
8g
8a
=12
4.b
4.dd
=13
4g}
8r
4r
{8g
=14
8.ee
16dd
8cc
8.cc
16b
8a
=15
8.g
16a
8g
8g}
8r
{16e
16g
=16
8.ee
16dd
8cc
8.cc
16b
8a
=17
8.g
16a
8g
8g}
8r
{16g
16a
=18
[4.b
8b]
8g
8a
=19
[4.b
8b]
8g
8a
=20
8b
8g
8a
8b
8g
8a
=21
4.b
4.dd
=22
4g}
8r
4r
{8d
=23
8.f
16e
8d
8e
8r
8A
=24
8.f
16e
8d
8e}
8r
{8e
=25
8.a
16g
8f
8g
8r
8c
=26
8.a
16g
8f
8g}
8r
8r
=27
4r
8r
{4.g
=28
[2.g
=29
2.g_
=30
4.g]
[4.gg
=31
2.gg]
=32
2.gg
=33
4.gg
4.ff
=34
8.ee
16dd
8cc
8.cc
16b
8a
=35
8.g
16a
8g
8g}
8r
{16e
16g
=36
8.ee
16dd
8cc
8.cc
16b
8a
=37
8.g
16a
8g
8g
8r
8g
=38
8.g
16a
8g
8g}
8r
8r
=39
{8g
8a
8g
8g
8a
8g
=40
4.g
4.a
=41
[4.cc
8cc]}
{8a
8b
=42
8cc
8a
8b
8cc
8a
8b
=43
4.cc
4.g
=44
4.ee}
4r
8r
==
*-
